X:81
T:Grey Owl
C:Traditional Métis
Z:abc-transcription Josh Larios <hades@elsewhere.org>, 2015.10.09
N:NB: There's an extra half-measure in the middle of the A part.
N:Chords from Bruce Molsky's "Contented Must Be", melody from various Youtube performances
M:4/4
L:1/8
G:Key: D
K:D
|: "D"DE F2 E2 DB, | A,B, DE F2 ED | "Em"EF GA BG E2 | EF GA B2 BA | "^* NB"Bc de |
"G"f2 fe fg fd | "Bm"B2 BA B2-BA | "G"BG Bd "A"cA ce |1 "D"d2 dc d2 D2- :|2 "D"d2 dc de fg |
|: "D"ab af d2- de | "Bm"fg fd B2 BA | FB BA Bc de | "A"fg fd e2 fg | 
"D"ab af d2- de | "Bm"fg fd B2 BA | FB BA Bc de |1 "A"fd ec "D"d2 fg :|2 "A"fd ec "D"d2 D2- | 

